X:1
T:Title
%%score 1 { 2 | 3 }
L:1/8
Q:1/4=110
M:3/4
K:G
V:1 treble nm="Grand Piano, Soprano"
V:2 bass nm="Choir Pad, Hounslow, 10.10.12.10"
V:3 bass 
V:1
 [DB]2 [DG]2 [B,D]2 | [CE]>[EG] [EG]4 | [DF]2 [DG]2 [DA]2 | [DB]6 | [DB]2 [DG]2 [B,D]2 | %5
w: By~William~J.~Kirkptick,~1884 * *|||||
 [CE]>[EG] [EG]4 | [DF]2 [DG]2 [DA]2 | [DG]6 | [FA]2 [Fd]2 [FA]2 | [GB]>[Gc] [Gd]4 | %10
w: |||||
 [Fd]2 [FA]2 [Ac]2 | [Ac]>[GB] [GB]4 | [GB]2 [DA]2 [DG]2 | [CE]>[Ec] [Ec]4 | [DB]2 [DG]2 [DA]2 | %15
w: |||||
 [DG]6- | [DG]2 z2 z2 |] %17
w: ||
V:2
 G,2 B,2 G,2 | G,>C C4 | A,2 B,2 F,2 | G,6 | G,2 B,2 G,2 | G,>[K:treble]C C4 | A,2 B,2 C2 | B,6 | %8
 D2 A,2 D2 | D>C B,4 | A,2 D2 D2 | D>D D4 | D2[K:bass] F,2 G,2 | G,>G, G,4 | G,2 B,2 C2 | B,6- | %16
 B,2 z2 z2 |] %17
V:3
 G,,2 G,,2 G,,2 | C,>C, C,4 | D,2 D,2 D,2 | G,,6 | G,,2 G,,2 G,,2 | C,>C, C,4 | D,2 D,2 D,2 | %7
 [G,,G,]6 | D,2 D,2 D,2 | G,>G, G,4 | D,2 D,2 D,2 | G,>G, G,4 | G,,2 A,,2 B,,2 | C,>C, C,4 | %14
 D,2 D,2 D,2 | [G,,G,]6- | [G,,G,]2 z2 z2 |] %17

